src/symbols/warning/1F4F5.svg

<svg id="emoji" viewBox="0 0 72 72" xmlns="http://www.w3.org/2000/svg">
  <g id="grid">
    <path fill="#b3b3b3" d="M68,4V68H4V4H68m4-4H0V72H72V0Z"/>
    <path fill="none" stroke="#00a5ff" stroke-miterlimit="10" stroke-width="0.1" d="M12.923,10.9583H59.0769A1.9231,1.9231,0,0,1,61,12.8814V59.0352a1.9231,1.9231,0,0,1-1.9231,1.9231H12.9231A1.9231,1.9231,0,0,1,11,59.0352V12.8813A1.923,1.923,0,0,1,12.923,10.9583Z"/>
    <rect x="16" y="4" rx="2.2537" width="40" height="64" fill="none" stroke="#00a5ff" stroke-miterlimit="10" stroke-width="0.1"/>
    <rect x="16" y="4" rx="2.2537" width="40" height="64" transform="translate(72) rotate(90)" fill="none" stroke="#00a5ff" stroke-miterlimit="10" stroke-width="0.1"/>
    <circle cx="36" cy="36" r="29" fill="none" stroke="#00a5ff" stroke-miterlimit="10" stroke-width="0.1"/>
  </g>
  <g id="color">
    <circle cx="36" cy="36" r="26" fill="#fff"/>
    <path fill="none" d="m29.48 20h13.52c1.104 0 2 0.8955 2 2v13.52"/>
    <path fill="none" d="m42.52 52h-13.52c-1.104 0-2-0.8955-2-2v-13.52"/>
    <polyline fill="#fff" stroke-linecap="round" stroke-linejoin="round" stroke-miterlimit="10" stroke-width="2" points="27 37.48 27 50 39.52 50"/>
    <path fill="#fff" stroke-linecap="round" stroke-linejoin="round" stroke-miterlimit="10" stroke-width="2" d="m41.52 52h-12.52c-1.104 0-2-0.8955-2-2h12.52l2 2z"/>
    <polyline fill="#fff" stroke-linecap="round" stroke-linejoin="round" stroke-miterlimit="10" stroke-width="2" points="45 34.52 45 22 32.48 22"/>
    <path fill="#fff" stroke-linecap="round" stroke-linejoin="round" stroke-miterlimit="10" stroke-width="2" d="m30.48 20h12.52c1.104 0 2 0.8955 2 2h-12.52l-2-2z"/>
    <path fill="#ea5a47" stroke-miterlimit="10" d="m36 7c-16.02 0-29 12.98-29 29s12.98 29 29 29 29-12.98 29-29-12.98-29-29-29zm-25.21 29.27c0-5.075 3.417-12.69 6.202-16.49l35.2 35.27c-3.805 2.784-10.93 5.904-16.01 5.904-12.7 0-25.39-11.98-25.39-24.68zm44.87 15.18-35.06-35.13c3.805-2.784 10.77-5.441 15.84-5.441 12.7 0 24.68 12.25 24.68 24.95 0 5.075-2.686 11.81-5.47 15.62z"/>
  </g>
  <g id="hair"/>
  <g id="skin"/>
  <g id="skin-shadow"/>
  <g id="line">
    <path fill="none" stroke="#000" stroke-linecap="round" stroke-linejoin="round" stroke-miterlimit="10" stroke-width="2" d="m27 35v15h12.52"/>
    <path fill="none" stroke="#000" stroke-linecap="round" stroke-linejoin="round" stroke-miterlimit="10" stroke-width="2" d="m44.02 52h-15.02c-1.104 0-2-0.8955-2-2h15.02z"/>
    <path fill="none" stroke="#000" stroke-linecap="round" stroke-linejoin="round" stroke-miterlimit="10" stroke-width="2" d="m45 36v-14h-12.52"/>
    <path fill="none" stroke="#000" stroke-linecap="round" stroke-linejoin="round" stroke-miterlimit="10" stroke-width="2" d="m28.98 20h14.02c1.104 0 2 0.8955 2 2h-14.02z"/>
    <circle cx="36" cy="36" r="30" fill="none" stroke="#000" stroke-linecap="round" stroke-linejoin="round" stroke-width="2"/>
    <path fill="none" stroke="#000" stroke-linecap="round" stroke-linejoin="round" stroke-width="2" d="m55.66 51.44a24.99 24.99 0 0 0-35.06-35.13z"/>
    <path fill="none" stroke="#000" stroke-linecap="round" stroke-linejoin="round" stroke-width="2" d="m16.99 19.77a24.99 24.99 0 0 0 35.2 35.27z"/>
  </g>
</svg>

<svg viewBox="0 0 72 72" xmlns="http://www.w3.org/2000/svg"><path fill="#b3b3b3" d="M68 4v64H4V4h64m4-4H0v72h72V0z"/><path fill="none" stroke="#00a5ff" stroke-miterlimit="10" stroke-width=".1" d="M12.923 10.958h46.154A1.923 1.923 0 0161 12.881v46.154a1.923 1.923 0 01-1.923 1.923H12.923A1.923 1.923 0 0111 59.035V12.881a1.923 1.923 0 011.923-1.923z"/><rect x="16" y="4" rx="2.254" width="40" height="64" fill="none" stroke="#00a5ff" stroke-miterlimit="10" stroke-width=".1"/><rect x="16" y="4" rx="2.254" width="40" height="64" transform="rotate(90 36 36)" fill="none" stroke="#00a5ff" stroke-miterlimit="10" stroke-width=".1"/><circle cx="36" cy="36" r="29" fill="none" stroke="#00a5ff" stroke-miterlimit="10" stroke-width=".1"/><g stroke-linecap="round" stroke-miterlimit="10" stroke-width="6" stroke="#fff" fill="none" stroke-linejoin="round"><path d="M27 35v15h12.52m4.5 2H29a2 2 0 01-2-2h15.02zM45 36V22H32.48m-3.5-2H43a2 2 0 012 2H30.98z"/><circle cx="36" cy="36" r="30"/><path d="M55.66 51.44A24.99 24.99 0 0020.6 16.31zM16.99 19.77a24.99 24.99 0 0035.2 35.27z"/></g><circle cx="36" cy="36" r="26" fill="#fff"/><path fill="none" d="M29.48 20H43a2 2 0 012 2v13.52M42.52 52H29a2 2 0 01-2-2V36.48"/><path fill="#fff" d="M27 37.48V50h12.52m2 2H29a2 2 0 01-2-2h12.52l2 2zM45 34.52V22H32.48m-2-2H43a2 2 0 012 2H32.48l-2-2z"/><path fill="#ea5a47" d="M36 7C19.98 7 7 19.98 7 36s12.98 29 29 29 29-12.98 29-29S52.02 7 36 7zM10.79 36.27c0-5.075 3.417-12.69 6.202-16.49l35.2 35.27c-3.805 2.784-10.93 5.904-16.01 5.904-12.7 0-25.39-11.98-25.39-24.68zm44.87 15.18L20.6 16.32c3.805-2.784 10.77-5.441 15.84-5.441 12.7 0 24.68 12.25 24.68 24.95 0 5.075-2.686 11.81-5.47 15.62z"/><g fill="none" stroke="#000" stroke-linecap="round" stroke-linejoin="round" stroke-width="2"><path stroke-miterlimit="10" d="M27 35v15h12.52m4.5 2H29a2 2 0 01-2-2h15.02zM45 36V22H32.48m-3.5-2H43a2 2 0 012 2H30.98z"/><circle cx="36" cy="36" r="30"/><path d="M55.66 51.44A24.99 24.99 0 0020.6 16.31zM16.99 19.77a24.99 24.99 0 0035.2 35.27z"/></g></svg>
